icons/1_Primary/Binance.svg

<svg width="1024" height="1024" fill="none" xmlns="http://www.w3.org/2000/svg"><g clip-path="url(#a)"><path d="M512 1024c282.77 0 512-229.23 512-512S794.77 0 512 0 0 229.23 0 512s229.23 512 512 512Z" fill="#F8C18C"/><path d="M342.63 405.71 512 236.34l169.42 169.43-62.3 62.3L512 360.95 404.93 468l-62.3-62.29ZM236.33 512l62.3 62.3 62.3-62.3-62.3-62.3-62.3 62.3Zm106.2 106.21.09.09L512 787.66l169.42-169.42-62.33-62.26L512 663.05 404.93 556l-62.4 62.21Zm382.84-168.49L663.07 512l62.3 62.3 62.3-62.3-62.3-62.28ZM575.19 512 512 448.75l-46.72 46.72-5.36 5.37-11.07 11.07-.09.09.09.09L512 575.25 575.22 512h-.03Z" fill="#fff"/></g><defs><clipPath id="a"><path fill="#fff" d="M0 0h1024v1024H0z"/></clipPath></defs></svg>

<svg width="1024" height="1024" viewBox="0 0 1024 1024" fill="none" xmlns="http://www.w3.org/2000/svg">
<g clip-path="url(#clip0_2_1593)">
<path d="M512 1024C794.77 1024 1024 794.77 1024 512C1024 229.23 794.77 0 512 0C229.23 0 0 229.23 0 512C0 794.77 229.23 1024 512 1024Z" fill="#F8C18C"/>
<path d="M342.63 405.71L512 236.34L681.42 405.77L619.12 468.07L512 360.95L404.93 468L342.63 405.71ZM236.33 512L298.63 574.3L360.93 512L298.63 449.7L236.33 512ZM342.53 618.21L342.62 618.3L512 787.66L681.42 618.24L619.09 555.98L512 663.05L404.93 556L342.53 618.21ZM725.37 449.72L663.07 512L725.37 574.3L787.67 512L725.37 449.72ZM575.19 512L512 448.75L465.28 495.47L459.92 500.84L448.85 511.91L448.76 512L448.85 512.09L512 575.25L575.22 512H575.19Z" fill="white"/>
</g>
<defs>
<clipPath id="clip0_2_1593">
<rect width="1024" height="1024" fill="white"/>
</clipPath>
</defs>
</svg>
